packages/icons/src/components/Logo/assets/dark/redis.svg

<svg width="20" height="20" viewBox="0 0 20 20" fill="none" xmlns="http://www.w3.org/2000/svg">
<g>
<path d="M19.2148 14.6132C18.1484 15.1679 12.6172 17.4413 11.4414 18.0546C10.2656 18.6679 9.60938 18.664 8.67969 18.2187C7.75 17.7734 1.86719 15.3984 0.804688 14.8906C0.277344 14.6406 0 14.4257 0 14.2226V12.1992C0 12.1992 7.66016 10.5312 8.89844 10.0898C10.1367 9.64446 10.5625 9.62884 11.6172 10.0156C12.668 10.4023 18.9609 11.5351 20.0039 11.9179V13.9101C20 14.1132 19.7578 14.332 19.2148 14.6132Z" fill="#912626"/>
<path d="M19.2148 12.6054C18.1484 13.1601 12.6172 15.4335 11.4414 16.0468C10.2656 16.6601 9.60937 16.6562 8.67968 16.2109C7.74999 15.7656 1.86718 13.3906 0.804679 12.8827C-0.253915 12.3749 -0.277353 12.0273 0.765616 11.621C1.80858 11.2148 7.65624 8.9179 8.89452 8.47259C10.1328 8.02728 10.5586 8.01165 11.6133 8.39837C12.6641 8.78509 18.1601 10.9726 19.2031 11.3515C20.2422 11.7343 20.2851 12.0468 19.2148 12.6054Z" fill="#C6302B"/>
<path d="M19.2148 11.3437C18.1484 11.8984 12.6172 14.1718 11.4414 14.789C10.2656 15.4023 9.60938 15.3984 8.67969 14.9531C7.75 14.5077 1.86719 12.1327 0.804688 11.6249C0.277344 11.3671 0 11.1562 0 10.9531V8.92962C0 8.92962 7.66016 7.26165 8.89844 6.82025C10.1367 6.37493 10.5625 6.35931 11.6172 6.74603C12.668 7.13275 18.9609 8.26556 20.0039 8.64837V10.6406C20 10.8398 19.7578 11.0585 19.2148 11.3437Z" fill="#912626"/>
<path d="M19.2148 9.33196C18.1484 9.88665 12.6172 12.1601 11.4414 12.7773C10.2656 13.3906 9.60937 13.3867 8.67968 12.9413C7.7539 12.496 1.86718 10.1171 0.808585 9.61321C-0.250009 9.1054 -0.273446 8.75775 0.769522 8.3515C1.81249 7.94525 7.66405 5.64837 8.89843 5.20306C10.1367 4.75775 10.5625 4.74212 11.6172 5.12884C12.668 5.51556 18.1641 7.70306 19.207 8.08196C20.2422 8.46478 20.2851 8.77728 19.2148 9.33196Z" fill="#C6302B"/>
<path d="M19.2148 7.95306C18.1484 8.50775 12.6172 10.7812 11.4414 11.3984C10.2656 12.0117 9.60938 12.0077 8.67969 11.5624C7.75 11.1171 1.86719 8.74212 0.804688 8.23431C0.277344 7.9765 0 7.76165 0 7.56243V5.539C0 5.539 7.66016 3.87103 8.89844 3.42962C10.1367 2.98431 10.5625 2.96868 11.6172 3.3554C12.668 3.74212 18.9609 4.87493 20.0039 5.25775V7.24993C20 7.44915 19.7578 7.6679 19.2148 7.95306Z" fill="#912626"/>
<path d="M19.2149 5.94134C18.1485 6.49603 12.6172 8.76946 11.4414 9.38275C10.2656 9.99603 9.60939 9.99212 8.6797 9.54681C7.75001 9.1015 1.8672 6.7265 0.804701 6.21868C-0.253892 5.71087 -0.27733 5.36321 0.761733 4.95696C1.8047 4.55071 7.65626 2.25384 8.89064 1.80853C10.1289 1.36321 10.5547 1.34759 11.6094 1.73431C12.6602 2.12103 18.1563 4.30853 19.1992 4.68743C20.2422 5.07025 20.2852 5.38665 19.2149 5.94134Z" fill="#C6302B"/>
<path d="M12.4453 3.97656L10.7266 4.15625L10.3399 5.08203L9.71876 4.04687L7.73048 3.86719L9.21095 3.33203L8.76563 2.51172L10.1563 3.05469L11.4649 2.625L11.1133 3.47266L12.4453 3.97656ZM10.2383 8.46875L7.02735 7.13672L11.625 6.42969L10.2383 8.46875ZM5.78907 4.48828C7.14845 4.48828 8.2461 4.91406 8.2461 5.44141C8.2461 5.96875 7.14454 6.39453 5.78907 6.39453C4.4336 6.39453 3.33204 5.96875 3.33204 5.44141C3.32814 4.91797 4.4297 4.48828 5.78907 4.48828Z" fill="white"/>
<path d="M14.4766 4.22656L17.1992 5.30078L14.4805 6.375L14.4766 4.22656Z" fill="#621B1C"/>
<path d="M11.4648 5.41797L14.4766 4.22656L14.4805 6.375L14.1836 6.49219L11.4648 5.41797Z" fill="#9A2928"/>
</g>
<defs>
<clipPath id="clip0_378_567">
<rect width="20" height="20" fill="white"/>
</clipPath>
</defs>
</svg>

<svg xmlns="http://www.w3.org/2000/svg" width="20" height="20" fill="none" viewBox="0 0 20 20">
    <path fill="#912626" d="M19.215 14.613c-1.067.555-6.598 2.828-7.774 3.442-1.175.613-1.832.609-2.761.164-.93-.446-6.813-2.82-7.875-3.328-.528-.25-.805-.465-.805-.668v-2.024s7.66-1.668 8.898-2.11c1.239-.445 1.665-.46 2.72-.073 1.05.386 7.343 1.52 8.386 1.902v1.992c-.004.203-.246.422-.79.703"/>
    <path fill="#c6302b" d="M19.215 12.605c-1.067.555-6.598 2.829-7.774 3.442-1.175.613-1.832.61-2.761.164-.93-.445-6.813-2.82-7.875-3.328-1.059-.508-1.082-.856-.04-1.262 1.044-.406 6.891-2.703 8.13-3.148 1.238-.446 1.664-.461 2.718-.075 1.051.387 6.547 2.575 7.59 2.954 1.04.382 1.082.695.012 1.253"/>
    <path fill="#912626" d="M19.215 11.344c-1.067.554-6.598 2.828-7.774 3.445-1.175.613-1.832.61-2.761.164-.93-.445-6.813-2.82-7.875-3.328-.528-.258-.805-.469-.805-.672V8.93s7.66-1.668 8.898-2.11c1.239-.445 1.665-.46 2.72-.074 1.05.387 7.343 1.52 8.386 1.902v1.993c-.004.199-.246.418-.79.703"/>
    <path fill="#c6302b" d="M19.215 9.332c-1.067.555-6.598 2.828-7.774 3.445-1.175.614-1.832.61-2.761.164-.926-.445-6.813-2.824-7.871-3.328-1.059-.508-1.082-.855-.04-1.261 1.043-.407 6.895-2.704 8.13-3.149 1.238-.445 1.664-.46 2.718-.074 1.051.387 6.547 2.574 7.59 2.953 1.035.383 1.078.695.008 1.25"/>
    <path fill="#912626" d="M19.215 7.953c-1.067.555-6.598 2.828-7.774 3.445-1.175.614-1.832.61-2.761.164-.93-.445-6.813-2.82-7.875-3.328C.277 7.976 0 7.762 0 7.562V5.54s7.66-1.668 8.898-2.11c1.239-.445 1.665-.46 2.72-.074 1.05.387 7.343 1.52 8.386 1.903V7.25c-.004.2-.246.418-.79.703"/>
    <path fill="#c6302b" d="M19.215 5.941c-1.067.555-6.598 2.828-7.774 3.442-1.175.613-1.832.61-2.761.164C7.75 9.1 1.867 6.727.805 6.219-.254 5.71-.277 5.363.762 4.957c1.043-.406 6.894-2.703 8.129-3.148 1.238-.446 1.664-.461 2.718-.075 1.051.387 6.547 2.575 7.59 2.953 1.043.383 1.086.7.016 1.254"/>
    <path fill="#fff" d="m12.445 3.977-1.718.18-.387.925-.621-1.035-1.989-.18 1.481-.535-.445-.82 1.39.543 1.309-.43-.352.848zm-2.207 4.492-3.21-1.332 4.597-.707zM5.79 4.489c1.36 0 2.457.425 2.457.952 0 .528-1.101.954-2.457.954s-2.457-.426-2.457-.954c-.004-.523 1.098-.953 2.457-.953"/>
    <path fill="#621b1c" d="M14.477 4.227 17.199 5.3 14.48 6.375z"/>
    <path fill="#9a2928" d="m11.465 5.418 3.012-1.191.003 2.148-.296.117z"/>
</svg>
